X:5236
T:Finn Jenta
R:Waltz
O:Norway
O:USA
M:3/4
K:GDor
D^F |\
G2 G<^F G>A | {A}B2 BA B>c | \
c<d dc d>e | f2 fe gf |\
d2 dc Ac | B2 {c}BA G2 |
^FG A2 F2 |1 D4 :|2 ^F<(G G2) ::\
Bc |\
[D2d2] c2B2 | [F4A4] FA | \
c2 (3BcB A2 | [B,3G3] ^F GA |
[D2B2] A2 ^F2 | D2A2 ^F2 \
|1 G2 d2 ^c2 | ^c<(d d2) d2 :|2 G3G G2 |[B,2G2]:|
